X:656
T: DORT OBEN VOR DER HIMMLISCHEN THUER
N: E2035
O: Europa, Mitteleuropa, Deutschland, Baden, Bodensee
R: geistlich, Wallfahrts - Lied
M: 3/4
L: 1/16
K: Ab
E4 | F2E2E4E4 | F2E2E4
A2B2 | c4c4c2e2 | B8
B2c2 | d2B2B3BB2d2 | c2A2A4
A2c2 | B4A4G4 | A8
B2c2 | d2B2B3BB2d2 | c2A2A4
A2c2 | B4A4G4 | A8

@@@ Tune index: 5340
